X: 25620
T: Married In The Sound
R: waltz
M: 3/4
K: Gmajor
|:d>Ad|gad|c>BA|G2B|c>BA|B>AG|FGA|Bce|
d>Ad|gad|c>BA|G2B|c>BA|B>AG|F>DF|G3:|
|:d>Ad|f>ga|gba|g2d|e>fg|d>cB|ABc|B>AG|
d>Ad|f>ga|gba|g2d|b>ag|fed|cBA|G3:|

